X:1
T:Ära vare Gud i höjden
T:Ära vare Gud i höjden
T:Johann Georg Lotscher (1733-1805)
C:Johann Georg Lotscher (1733-1805)
%%score [ 1 2 3 4 ]
L:1/8
Q:1/4=76
M:4/4
K:C
V:1 treble nm="Soprano"
V:2 treble nm="Alto"
V:3 treble-8 nm="Tenor"
V:4 bass nm="Bass"
V:1
"^Maestoso e non veloce"!f! C2 E2 G2 c2 | (d>ef) d!>(! (e>d) c!>)! G | %2
w: Ä- ra va- re|Gud _ _ i höj- * den och|
!<(! A2 c2!<)!!>(! (AG/A/) G G!>)! |!<(! F2 d2!<)!!>(! (FE/F/) E!>)! z | %4
w: frid på jor- * * den, och|frid på jor- * * den.|
!<(! (EG) (ce) d3/2 c/ B c!<)! |!>(! (B2 A2) G2!>)! z2 ::!ff! d2 d2!mf! e (d/e/) d2 | %7
w: Män- * ni- * skor- na en god|vil- * ja.|Ä- ra va- re _ Gud.|
!pp! d2 d2 e (d/e/) d!mf! G | f2 e2 (ed) z!p! G | c3 c"^cresc." c2 c c | d3 d d2 d G | %11
w: Ä- ra va- re _ Gud i|höj- * den _ och|frid på jor- den, och|frid på jor- den, till|
!f! f2 (ed) e B c f |!>(! (e2 d2)!>)! c2 z2 :| %13
w: män- ni- * skor- na en god|vil- * ja.|
V:2
!f! C2 C2 C2 E2 | G3 G!>(! (G>F) E!>)! E |!<(! F2 F2!<)!!>(! (FE/F/) E E!>)! | %3
w: Ä- ra va- re|Gud i hoj- * den och|frid på jor- * * den, och|
!<(! D2 F2!<)!!>(! (DC/D/) C!>)! z |!<(! (CE) G2 G3/2 G/ G A!<)! |!>(! (G2 ^F2) G2!>)! z2 :: %6
w: frid på jor- * * den.|Män- * ni- skor- na en god|vil- * ja.|
!ff! G2 G2!mf! G G G2 |!pp! G2 G2 G G G!mf! G | G4 G2 z2 | z!p! E F G"^cresc." A2 A G | %10
w: Ä- ra va- re Gud.|Ä- ra va- re Gud i|höj- den|och frid på jor- den, och|
 (^FG) (AF) G2 G G |!f! G2 G2 G F G A |!>(! (G2 F2)!>)! E2 z2 :| %13
w: frid _ på _ jor- den, till|män- ni- skor- na en god|vil- * ja.|
V:3
!f! c2 c2 c2 G2 | (B>cd) B!>(! c2 c!>)! z |!<(! z c c c!<)!!>(! c2 c z!>)! | %3
w: Ä- ra va- re|Gud _ _ i höj- den|och frid på jor- den,|
!<(! z B B B!<)!!>(! G2 G!>)! z |!<(! c2 c2 B3/2 d/ d e!<)! |!>(! (d2 c2) B2!>)! z2 :: %6
w: och frid på jor- den.|Män- ni- skor- na en god|vil- * ja.|
!ff! B2 B2!mf! c (B/c/) B2 |!pp! B2 B2 c (B/c/) B!mf! G | (d2 c2) (cB) z2 | %9
w: Ä- ra va- re _ Gud.|Ä- ra va- re _ Gud i|höj- * den _|
 z!p! c c c"^cresc." c2 c c | (A d2) c c2 B G |!f! d2 (cB) e d c c |!>(! (c2 B2)!>)! c2 z2 :| %13
w: och frid på jor- den, och|frid _ på jor- den, till|män- ni- * skor- na en god|vil- * ja.|
V:4
!f! C2 G,2 E,2 C,2 | G,3 G,!>(! C,2 C,!>)! C, |!<(! F,2 A,2!<)!!>(! (CC,) C, C,!>)! | %3
w: Ä- ra va- re|Gud i höj- den och|frid på jor- * den, och|
!<(! G,2 G,,2!<)!!>(! (C,G,,) C,!>)! z |!<(! (CG,) (E,C,) D,3/2 ^F,/ G, C,!<)! | %5
w: frid på jor- * den.|Män- * ni- * skor- na en god|
!>(! D,4 G,2!>)! z2 ::!ff! G,2 G,,2!mf! (C,/E,/) (G,/C/) G,2 | %7
w: vil- ja.|Ä- ra va- * re _ Gud.|
!pp! G,2 G,,2 (C,/E,/) (G,/C/) G,!mf! G, | (B,2 C2) G,2 z2 | z!p! C, D, E,"^cresc." F,2 F, _E, | %10
w: Ä- ra va- * re _ Gud i|höj- * den|och frid på jor- den, och|
 (D,=E,) (^F,D,) G,2 G, G, |!f! B,2 (CG,) C, D, E, F, |!>(! (G,2 G,,2)!>)! C,2 z2 :| %13
w: frid _ på _ jor- den, till|män- ni- * skor- na en god|vil- * ja.|

